X: 24123
T: Longford Collector, The
R: reel
M: 4/4
K: Gmajor
~G3 A Bddg|e~B B2 eBdB|~G3 A BddB|AcBA GEDE|
~G3 A Bddg|e~B B2 d2 eg|~g3 f gedB|AcBA GEDE:|
|:~g3 a gedg|e~B B2 d2 eg|~g3 f gedB|AcBA GEDE|
~g3 a gedg|e~B B2 d2 eg|~g3 f gedB|AcBA GEDE:|

